X:355
%%etbk:tnset id:166,pos:1,rep:3x,ant:
%%etbk:pldat 2015-03-25T18:47,2014-12-09T17:55,2014-12-03T17:26,2014-12-02T17:39,2014-05-19T19:30,2014-05-14T16:48,2014-04-27T12:44,2014-04-06T15:53,2014-03-22T15:21,2014-03-16T17:34,2014-03-15T16:51,2014-03-09T14:57,2014-02-05T17:26,2013-11-26T16:22,2013-10-04T15:50,2013-09-02T18:17,2013-05-21T15:58,2013-05-18T13:59,2013-05-14T18:23,2013-05-12T18:24,2013-05-06T18:59
T:Eddie Kelly's #1
Z: Piano Box Version by Martin Fleischmann
H: Created 2013-02-19 /  Modified 2013-10-04
R:jig
M:6/8
K: Edor
|: "em"!3!B!5!ee !4!dBA | !3!BA!1!G !2!E!1!D!1!D| !1!D!2!E!4!G !1!E!5!ed | !3!BAG "bm"!2!A!3!B!4!d|
"em"!5!eEe !4!d!3!B!2!A | !3!BA!1!G !2!E!1!D!1!D | !1!D!2!E!4!G !1!E!5!ed|1 "bm"!3!B!1!A!2!F "em"!1!E2A:|2 "bm"BAF "em"E2!3!d||
|: "em"!4!e2!3!f !4!gfe | !5!b!2!e!4!g !3!fed | !1!B!2!e!4!g !5!b!2!e!4!g | "bm"!3!fed "em"!2!e2f|
"bm"!5!g2f !3!e!2!d!1!B | !3!A!2!F!1!D !2!F!1!G!3!A | !5!d2!4!e !5!fed|1 !2!B!1!A!2!F "em"!1!E2!3!d:|2 !2!B!1!A!2!F "em"!1!E2!2!A||


